lib/icons-source/user.svg

<svg width="25" height="25" viewBox="0 0 25 25" fill="none" xmlns="http://www.w3.org/2000/svg">
<g clip-path="url(#clip0_1_30)">
<rect width="25" height="25" fill="white"/>
<path d="M23.0169 15.8697C22.1884 15.1417 21.1836 14.5126 20.0302 14.0001C19.5372 13.7812 18.9602 14.0032 18.7412 14.496C18.5223 14.9889 18.7443 15.5659 19.2371 15.785C20.2097 16.2172 21.0478 16.7393 21.7278 17.3368C22.566 18.0735 23.0469 19.1401 23.0469 20.2637V22.0703C23.0469 22.6088 22.6088 23.0469 22.0703 23.0469H2.92969C2.39124 23.0469 1.95312 22.6088 1.95312 22.0703V20.2637C1.95312 19.1401 2.43397 18.0735 3.27225 17.3368C4.25892 16.4698 7.13367 14.4531 12.5 14.4531C16.4846 14.4531 19.7266 11.2112 19.7266 7.22656C19.7266 3.24192 16.4846 0 12.5 0C8.51536 0 5.27344 3.24192 5.27344 7.22656C5.27344 9.55601 6.38161 11.6312 8.09822 12.9536C4.9572 13.644 3.00331 14.9731 1.98307 15.8697C0.722885 16.9769 0 18.5783 0 20.2637V22.0703C0 23.6858 1.31416 25 2.92969 25H22.0703C23.6858 25 25 23.6858 25 22.0703V20.2637C25 18.5783 24.2771 16.9769 23.0169 15.8697ZM7.22656 7.22656C7.22656 4.31881 9.59225 1.95312 12.5 1.95312C15.4078 1.95312 17.7734 4.31881 17.7734 7.22656C17.7734 10.1343 15.4078 12.5 12.5 12.5C9.59225 12.5 7.22656 10.1343 7.22656 7.22656Z" fill="black"/>
</g>
<defs>
<clipPath id="clip0_1_30">
<rect width="25" height="25" fill="white"/>
</clipPath>
</defs>
</svg>

<svg viewBox="0 0 25 25" fill="none" xmlns="http://www.w3.org/2000/svg"><rect fill="white"/><path d="M23.017 15.87c-.829-.728-1.833-1.357-2.987-1.87a.977.977 0 0 0-.793 1.785c.973.432 1.81.954 2.49 1.552a3.9 3.9 0 0 1 1.32 2.927v1.806a.98.98 0 0 1-.977.977H2.93a.98.98 0 0 1-.977-.977v-1.806c0-1.124.481-2.19 1.32-2.927.986-.867 3.86-2.884 9.227-2.884 3.985 0 7.227-3.242 7.227-7.226S16.485 0 12.5 0 5.273 3.242 5.273 7.227a7.22 7.22 0 0 0 2.825 5.727c-3.14.69-5.095 2.02-6.115 2.916A5.85 5.85 0 0 0 0 20.264v1.806A2.933 2.933 0 0 0 2.93 25h19.14A2.933 2.933 0 0 0 25 22.07v-1.806a5.85 5.85 0 0 0-1.983-4.394M7.227 7.227A5.28 5.28 0 0 1 12.5 1.953a5.28 5.28 0 0 1 5.273 5.274A5.28 5.28 0 0 1 12.5 12.5a5.28 5.28 0 0 1-5.273-5.273" fill="black"/></svg>
